X:1
T:Lenoal, CM
T:Lenoal, CM
T:Arr. from J. J. Behrens by Lowell Mason, 1844
T:Public Domain Courtesy of the Cyber Hymnal™
C:Arr. from J. J. Behrens by Lowell Mason, 1844
Z:Public Domain
Z:Courtesy of the Cyber Hymnal™
%%score ( 1 2 ) ( 3 4 )
L:1/8
Q:1/4=110
M:4/4
K:G
V:1 treble 
V:2 treble 
V:3 bass 
V:4 bass 
V:1
 [B,D]2 | [DB]2 [CA]2 [B,G]2 [DF]2 | [DF]3 [CE] [B,D]2 [B,D]2 | [Dc]2 [DB]2 [EA]2 (GA) | %4
 [^DB]6 [EG]2 | [=Fd]2 [FG]2 [EG]2 [Ec]2 | [^Fc]2 [FA]2 [GB]2 [GB]2 | (Ae) (cA) [DG]2 [DF]2 | %8
 [DG]6 |] %9
V:2
 x2 | x8 | x8 | x6 E2 | x8 | x8 | x8 | E2 E2 x4 | x6 |] %9
V:3
 G,2 | G,2 G,2 G,2 G,2 | G,3 G, G,2 G,2 | [F,A,]2 [G,B,]2 [C,E,]2 [C,E,]2 | [B,,F,]6 [E,G,]2 | %5
 [B,,G,]2 [B,,D]2 [C,C]2 [A,,C]2 | [D,A,]2 [D,D]2 [G,D]2 [G,D]2 | [C,C]2 [C,C]2 [D,B,]2 [D,A,]2 | %8
 [G,,B,]6 |] %9
V:4
 G,2 | G,2 G,2 G,2 G,2 | G,3 G, G,2 G,2 | x8 | x8 | x8 | x8 | x8 | x6 |] %9

